X:30
T:Froggie On The Carport
C:Rick Mohr
S:Bernie Waugh
R:Reel
M:4/4
L:1/8
K:A Mixolydian
|:\
"A"Ace^g agaB|Ace^g "F#m"agaf|"G"edef gfgf|edef "D7"ge=cA|
"A"Ace^g agaB|Ace^g "F#m"agaf|"E7"efed cABc|"A"A6cB:|
|:\
"A"ABcd eA c2|"Bm"d3dd2BA|"G"GAB=c dGB2|"F"=c3cc2"D7"cB|
"A"ABcd eAce|"F#m"a2fa "G"g3f|"D7"efed "E7"cABc|"A"A6cB:|

